dist/static/img/context/res-8.svg

<svg width="80" height="80" viewBox="0 0 80 80" fill="none" xmlns="http://www.w3.org/2000/svg">
<rect width="80" height="80" rx="40" fill="#1F5AFF"/>
<path d="M46.6768 32.5422C47.0652 32.5422 47.38 32.2275 47.38 31.839V30.9161C47.38 30.5276 47.0652 30.2129 46.6768 30.2129C46.2884 30.2129 45.9736 30.5276 45.9736 30.9161V31.839C45.9736 32.2275 46.2885 32.5422 46.6768 32.5422Z" fill="white"/>
<path d="M40.6182 32.5422C41.0067 32.5422 41.3214 32.2275 41.3214 31.839V30.9161C41.3214 30.5276 41.0067 30.2129 40.6182 30.2129C40.2298 30.2129 39.915 30.5276 39.915 30.9161V31.839C39.915 32.2275 40.2299 32.5422 40.6182 32.5422Z" fill="white"/>
<path d="M43.6405 38.1299C45.0006 38.1299 46.1072 37.0233 46.1072 35.6631C46.1072 35.2747 45.7924 34.96 45.404 34.96C45.0155 34.96 44.7008 35.2747 44.7008 35.6631C44.7008 36.2478 44.2252 36.7235 43.6405 36.7235C43.0558 36.7235 42.5802 36.2479 42.5802 35.6631C42.5802 35.2747 42.2654 34.96 41.877 34.96C41.4886 34.96 41.1738 35.2747 41.1738 35.6631C41.1738 37.0233 42.2804 38.1299 43.6405 38.1299Z" fill="white"/>
<path d="M59.658 53.7064C60.0464 53.7064 60.3611 53.3916 60.3611 53.0032V50.8224C60.3611 48.8081 59.0746 47.0353 57.1531 46.409L48.4576 43.6696V40.8721C50.4869 39.3738 51.4849 36.9227 51.3988 34.4425C53.0121 34.5665 54.7699 33.6102 54.7699 31.7801V30.3121C54.7699 29.6089 54.4954 28.9689 54.0485 28.4925C54.0576 28.4473 54.0625 26.4868 54.0625 26.4868C54.0625 26.0983 53.7478 25.7836 53.3593 25.7836C52.9709 25.7836 52.6562 26.0983 52.6562 26.4868V27.6493H42.8126C41.6494 27.6493 40.703 26.703 40.703 25.5398V19.5159C40.703 18.3527 41.6494 17.4064 42.8126 17.4064H47.5858C50.3816 17.4064 52.6562 19.6809 52.6562 22.4768V23.4218C52.6562 23.8103 52.9709 24.125 53.3593 24.125C53.7478 24.125 54.0625 23.8103 54.0625 23.4218V22.4768C54.0626 18.9054 51.1571 16 47.5859 16H42.8127C41.0798 16 39.6368 17.2603 39.3496 18.9123H38.1706C35.4566 18.9123 33.2484 21.1205 33.2484 23.8345C33.2484 23.8345 33.2523 28.4285 33.2581 28.4651C32.7959 28.9443 32.5106 29.5953 32.5106 30.3121V31.7801C32.5106 33.5817 34.2603 34.5807 35.8819 34.4425C35.7272 36.9084 36.8248 39.3967 38.8231 40.8721V43.6976L32.4969 46.0621C31.8813 46.2931 31.3441 46.6901 30.9436 47.2101L26.8696 52.4987V50.145C26.8696 49.5099 26.587 48.9398 26.1414 48.5527V45.6405C26.1414 44.4499 25.1727 43.4812 23.9821 43.4812C22.7914 43.4812 21.8228 44.4499 21.8228 45.6405V48.0355C20.3419 48.0355 19.6387 48.8664 19.6387 50.145V56.0693C19.6387 57.0044 20.2505 57.799 21.0946 58.0747V60.4878C21.0946 63.87 25.4633 65.3398 27.5649 62.4699L31.2879 57.9718V63.2968C31.2879 63.6853 31.6027 64 31.9911 64H59.658C60.0464 64 60.3611 63.6853 60.3611 63.2968V56.0681C60.3611 55.6797 60.0464 55.3649 59.658 55.3649C59.2695 55.3649 58.9548 55.6797 58.9548 56.0681V62.5936H54.5366V53.2637C54.5366 52.8752 54.2219 52.5605 53.8335 52.5605C53.445 52.5605 53.1303 52.8752 53.1303 53.2637V53.8329H32.6944V53.1072C32.6944 52.7187 32.3796 52.404 31.9912 52.404C31.6028 52.404 31.288 52.7187 31.288 53.1072V55.7661L26.4598 61.5996C25.3086 62.9891 22.5011 63.0311 22.5011 60.4878V58.179H24.7351V58.9319C24.7351 59.3204 25.0499 59.6351 25.4383 59.6351C25.8267 59.6351 26.1415 59.3204 26.1415 58.9319V57.6617C26.5873 57.2746 26.8701 56.7044 26.8701 56.069V54.8026L32.0579 48.0683C32.2983 47.7561 32.6211 47.5176 32.9902 47.3791L39.4122 44.9787L43.2173 47.8438C43.4924 48.0509 43.8549 48.0033 44.1082 47.8101L47.8876 44.9644L56.7239 47.7481C58.0582 48.1831 58.9548 49.4185 58.9548 50.8223V53.0031C58.9548 53.3916 59.2696 53.7064 59.658 53.7064ZM53.1303 55.2393V59.6854H41.0585C40.67 59.6854 40.3553 60.0001 40.3553 60.3886C40.3553 60.777 40.67 61.0917 41.0585 61.0917H53.1304V62.5937H32.6944V61.0917H37.9945C38.3829 61.0917 38.6977 60.777 38.6977 60.3886C38.6977 60.0001 38.3829 59.6854 37.9945 59.6854H32.6944V55.2393H53.1303ZM23.2292 45.6407C23.2292 45.2255 23.567 44.8878 23.9821 44.8878C24.3973 44.8878 24.735 45.2256 24.735 45.6407V48.0357H23.2292V45.6407ZM21.0451 50.1452C21.0451 49.7574 21.3605 49.442 21.7483 49.442H24.7602C25.1479 49.442 25.4633 49.7574 25.4633 50.1452V50.948H23.2542C22.8658 50.948 22.5511 51.2628 22.5511 51.6512C22.5511 52.0397 22.8658 52.3544 23.2542 52.3544H25.4633V53.8604H23.2542C22.8658 53.8604 22.5511 54.1752 22.5511 54.5636C22.5511 54.952 22.8658 55.2668 23.2542 55.2668H25.4633V56.0696C25.4633 56.5385 25.179 56.7409 24.7606 56.7724L21.7483 56.7728C21.3605 56.7728 21.0451 56.4574 21.0451 56.0696V50.1452ZM53.3636 31.7801C53.3636 32.4728 52.8002 33.0362 52.1076 33.0362H51.3989V29.0559H52.1076C52.8003 29.0559 53.3636 29.6194 53.3636 30.312V31.7801ZM34.6547 23.8345C34.6547 21.8958 36.2319 20.3186 38.1706 20.3186H39.2968V25.5398V25.54C39.2968 26.7031 38.3504 27.6495 37.1872 27.6495H36.5852H34.6547V23.8345ZM35.1731 33.0362C34.4805 33.0362 33.9171 32.4727 33.9171 31.7801V30.3121C33.9171 29.6194 34.4805 29.056 35.1731 29.056H35.882V33.0363H35.1731V33.0362ZM37.2884 35.0611V29.0534C38.3959 29.0219 39.377 28.4767 40 27.647C40.642 28.5017 41.6639 29.0557 42.8127 29.0557H49.9923L49.9925 35.0611C49.9925 42.788 37.2884 42.779 37.2884 35.0611ZM47.0512 41.6835V43.8317L43.6405 46.4017L40.2296 43.8316V41.6836C41.9063 42.6896 45.2503 42.6271 47.0512 41.6835Z" fill="white"/>
<path d="M23.4853 36.0971C23.8169 36.3717 24.1484 36.3717 24.4798 36.0971L27.3921 33.1848C27.6667 32.91 27.6667 32.4649 27.392 32.1903C27.1175 31.9157 26.6723 31.9157 26.3976 32.1903L23.9826 34.6055L23.0237 33.6464C22.749 33.3719 22.3038 33.3719 22.0292 33.6464C21.7546 33.9211 21.7546 34.3663 22.0292 34.6409L23.4853 36.0971Z" fill="white"/>
<path d="M21.7482 40.7051H27.6725C28.8356 40.7051 29.782 39.7587 29.782 38.5956V37.7927H31.9912C32.7338 37.7868 33.0619 37.2204 32.4912 36.5951L29.782 33.855V29.6925C29.782 28.5294 28.8356 27.583 27.6725 27.583H21.7482C20.5851 27.583 19.6387 28.5294 19.6387 29.6925V38.5956C19.6387 39.7587 20.585 40.7051 21.7482 40.7051ZM21.045 29.6925C21.045 29.3048 21.3604 28.9894 21.7482 28.9894H27.6725C28.0602 28.9894 28.3756 29.3048 28.3756 29.6925V34.1441C28.3756 34.3292 28.4486 34.5068 28.5788 34.6384L30.3071 36.3864H29.0788C28.6904 36.3864 28.3756 36.7012 28.3756 37.0896V38.5956C28.3756 38.9833 28.0602 39.2987 27.6725 39.2987H21.7482C21.3604 39.2987 21.045 38.9833 21.045 38.5956V29.6925Z" fill="white"/>
</svg>

<svg width="80" height="80" viewBox="0 0 80 80" fill="none" xmlns="http://www.w3.org/2000/svg"><rect width="80" height="80" rx="40" fill="#1F5AFF"/><path d="M46.677 32.542a.703.703 0 00.703-.703v-.923a.703.703 0 10-1.406 0v.923c0 .389.315.703.703.703zm-6.059 0a.703.703 0 00.703-.703v-.923a.703.703 0 10-1.406 0v.923c0 .389.315.703.703.703zm3.022 5.588a2.47 2.47 0 002.467-2.467.703.703 0 10-1.406 0 1.062 1.062 0 01-2.12 0 .703.703 0 10-1.407 0 2.47 2.47 0 002.467 2.467z" fill="#fff"/><path d="M59.658 53.706a.703.703 0 00.703-.703v-2.18a4.63 4.63 0 00-3.208-4.414l-8.695-2.74v-2.797c2.029-1.498 3.027-3.95 2.94-6.43 1.614.124 3.372-.832 3.372-2.662v-1.468c0-.703-.275-1.343-.722-1.82.01-.045.014-2.005.014-2.005a.703.703 0 10-1.406 0v1.162h-9.843a2.112 2.112 0 01-2.11-2.11v-6.023c0-1.163.946-2.11 2.11-2.11h4.773a5.076 5.076 0 015.07 5.07v.946a.703.703 0 101.407 0v-.945A6.484 6.484 0 0047.585 16h-4.773a3.52 3.52 0 00-3.463 2.912h-1.18a4.928 4.928 0 00-4.922 4.922s.004 4.595.01 4.631a2.653 2.653 0 00-.747 1.847v1.468c0 1.802 1.75 2.8 3.37 2.663-.154 2.465.944 4.954 2.942 6.43v2.825l-6.326 2.364a3.52 3.52 0 00-1.553 1.148L26.87 52.5v-2.354c0-.635-.283-1.205-.729-1.592V45.64c0-1.191-.968-2.16-2.159-2.16-1.19 0-2.16.969-2.16 2.16v2.395c-1.48 0-2.183.83-2.183 2.109v5.924c0 .935.611 1.73 1.456 2.006v2.413c0 3.382 4.368 4.852 6.47 1.982l3.723-4.498v5.325c0 .388.315.703.703.703h27.667a.703.703 0 00.703-.703v-7.229a.703.703 0 10-1.406 0v6.526h-4.418v-9.33a.703.703 0 10-1.407 0v.569H32.694v-.726a.703.703 0 10-1.406 0v2.66L26.46 61.6c-1.151 1.39-3.959 1.431-3.959-1.112v-2.309h2.234v.753a.703.703 0 101.407 0v-1.27c.445-.387.728-.958.728-1.593v-1.266l5.188-6.735c.24-.312.563-.55.932-.689l6.422-2.4 3.805 2.865c.275.207.638.16.891-.034l3.78-2.846 8.836 2.784a3.226 3.226 0 012.23 3.074v2.181c0 .389.316.703.704.703zM53.13 55.24v4.446H41.058a.703.703 0 100 1.407H53.13v1.502H32.694v-1.502h5.3a.703.703 0 100-1.407h-5.3V55.24H53.13zm-29.9-9.598a.754.754 0 011.505 0v2.395h-1.506V45.64zm-2.185 4.504c0-.388.315-.703.703-.703h3.012c.388 0 .703.315.703.703v.803h-2.209a.703.703 0 100 1.406h2.21v1.506h-2.21a.703.703 0 100 1.407h2.21v.803c0 .468-.285.67-.703.702h-3.013a.704.704 0 01-.703-.702v-5.925zM53.364 31.78c0 .693-.564 1.256-1.256 1.256h-.71v-3.98h.71c.692 0 1.256.563 1.256 1.256v1.468zm-18.71-7.946a3.52 3.52 0 013.517-3.515h1.126v5.221c0 1.163-.947 2.11-2.11 2.11h-2.532v-3.816zm.52 9.202a1.257 1.257 0 01-1.257-1.256v-1.468c0-.693.563-1.256 1.256-1.256h.709v3.98h-.709zm2.114 2.025v-6.008A3.512 3.512 0 0040 27.647a3.513 3.513 0 002.813 1.409h7.18v6.005c0 7.727-12.705 7.718-12.705 0zm9.763 6.623v2.148l-3.41 2.57-3.411-2.57v-2.148c1.676 1.006 5.02.943 6.821 0zm-23.566-5.587c.332.275.663.275.995 0l2.912-2.912a.703.703 0 00-.994-.995l-2.415 2.416-.96-.96a.703.703 0 00-.994.995l1.456 1.456z" fill="#fff"/><path d="M21.748 40.705h5.924c1.164 0 2.11-.946 2.11-2.11v-.802h2.21c.742-.006 1.07-.573.5-1.198l-2.71-2.74v-4.162c0-1.164-.946-2.11-2.11-2.11h-5.924c-1.163 0-2.11.946-2.11 2.11v8.903c0 1.163.947 2.11 2.11 2.11zm-.703-11.012c0-.388.315-.704.703-.704h5.924c.388 0 .704.316.704.703v4.452c0 .185.073.363.203.494l1.728 1.748H29.08a.703.703 0 00-.703.704v1.506a.704.704 0 01-.704.703h-5.924a.704.704 0 01-.703-.703v-8.903z" fill="#fff"/></svg>
